resources/svg/wifi-low-o.svg

<svg xmlns="http://www.w3.org/2000/svg" viewBox="0 0 15 15" fill="none"><path d="M3.21907 9.31819C4.37371 7.91855 5.91677 7.15686 7.50004 7.15686V6.15686C5.58264 6.15686 3.76839 7.08088 2.44768 8.68182L3.21907 9.31819ZM7.50004 7.15686C9.08331 7.15686 10.6264 7.91855 11.781 9.31819L12.5524 8.68182C11.2317 7.08088 9.41745 6.15686 7.50004 6.15686V7.15686ZM7.5 12C7.22386 12 7 11.7761 7 11.5H6C6 12.3284 6.67157 13 7.5 13V12ZM8 11.5C8 11.7761 7.77614 12 7.5 12V13C8.32843 13 9 12.3284 9 11.5H8ZM7.5 11C7.77614 11 8 11.2239 8 11.5H9C9 10.6716 8.32843 10 7.5 10V11ZM7.5 10C6.67157 10 6 10.6716 6 11.5H7C7 11.2239 7.22386 11 7.5 11V10Z" fill="black"/></svg>

<svg xmlns="http://www.w3.org/2000/svg" viewBox="0 0 15 15" fill="none"><path d="M3.22 9.318c1.154-1.4 2.697-2.161 4.28-2.161v-1c-1.917 0-3.732.924-5.052 2.525l.771.636zM7.5 7.157c1.583 0 3.126.762 4.281 2.161l.771-.636C11.232 7.08 9.417 6.157 7.5 6.157v1zM7.5 12a.5.5 0 01-.5-.5H6A1.5 1.5 0 007.5 13v-1zm.5-.5a.5.5 0 01-.5.5v1A1.5 1.5 0 009 11.5H8zm-.5-.5a.5.5 0 01.5.5h1A1.5 1.5 0 007.5 10v1zm0-1A1.5 1.5 0 006 11.5h1a.5.5 0 01.5-.5v-1z" fill="currentColor"/></svg>
